X:311
L:1/8
M:2/2
K:A
 ([Ae-]([Be-]) | (([ce])[A-f]) [Ae]2) [Ae]3 ([A-f] | [Ae]2) [ce]2- [ce]2 [ce]2 |{B} A2 A2 c2 A2 | 
 [ce]6 ([Ae-]([Be-]) | (([ce])[A-f]) [Ae])([A-f] [Ae]3) ([A-f] | [Ae]2) [ce]2 [ce]3 (B | 
 A2) A2 cA B2 | A6 :: (cB) | AF F2 [FA]3 [EA] | [FA]2 [AA]2- [AA]2 (cB) | AF F2 [FA]3 ([FA-] | 
 [EA]6) (cB) | AF F2 [FA]3 [EA] | [FA]2 [AA]2- [AA]2 [AA]2- | [AA]ABA c(A B2) | A6 :|

